X: 10681
M: 6/8
L: 1/8
K: G
d3 efg | d3 edB | A2A EFD | G/F/G/A/G DGB |\
d3 efg | d3 edB | A>^GA EFD | Gdd ddd H|]
ecA (e/d/)c/B/A | dBG d/c/B/A/G | cAF c/B/A/G/F | GBd G/A/B/c/d |\
ecA e/d/c/B/A | dBG d/c/B/A/G | A^ce A/B/c/d/f | "^D.C."d3 |]
gge g/a/g/=f/e/d/ | ccc {d}cBc | ddd {d}dcd | e3 c/B/c/d/e/f/ |\
gge g/a/g/=f/e/d/ | ccc {d}cBc | ddd dcB | "^D.C."c3 |]


